src/svg/ue929-order-form.svg

<!-- Generated by IcoMoon.io -->
<svg version="1.1" xmlns="http://www.w3.org/2000/svg" width="32" height="32" viewBox="0 0 32 32">
<path d="M7.353 9.563h14.667c0.194 0 0.354-0.064 0.48-0.19s0.187-0.286 0.187-0.478v-1.335c0-0.194-0.062-0.354-0.187-0.48s-0.286-0.187-0.48-0.187h-14.667c-0.194 0-0.354 0.062-0.478 0.187-0.126 0.126-0.19 0.286-0.19 0.48v1.335c0 0.194 0.064 0.354 0.19 0.478 0.126 0.126 0.283 0.19 0.478 0.19z"></path>
<path d="M28.75 0.583c-0.389-0.389-0.859-0.583-1.417-0.583h-22.667c-0.555 0-1.026 0.194-1.417 0.583-0.389 0.389-0.583 0.859-0.583 1.417v28c0 0.555 0.194 1.029 0.583 1.417 0.391 0.389 0.862 0.583 1.417 0.583h13.335c0.555 0 1.166-0.139 1.833-0.416 0.667-0.279 1.195-0.61 1.582-1.001l6.501-6.498c0.386-0.389 0.722-0.917 0.999-1.584s0.416-1.278 0.416-1.833h0.002v-18.667c0.002-0.555-0.194-1.029-0.583-1.417zM26.041 22.187l-6.521 6.521c-0.167 0.167-0.45 0.32-0.853 0.457v-7.833h7.833c-0.139 0.402-0.293 0.688-0.459 0.855zM26.667 18.665h-8.667c-0.555 0-1.029 0.194-1.415 0.583-0.391 0.391-0.585 0.862-0.585 1.417v8.667h-10.667v-26.667h21.335v16z"></path>
<path d="M7.353 14.896h14.667c0.194 0 0.354-0.062 0.48-0.187s0.187-0.283 0.187-0.478v-1.335c0-0.194-0.062-0.354-0.187-0.48s-0.286-0.187-0.48-0.187h-14.667c-0.194 0-0.354 0.062-0.478 0.187-0.126 0.126-0.19 0.286-0.19 0.48v1.335c0 0.194 0.064 0.354 0.19 0.478 0.126 0.126 0.283 0.187 0.478 0.187z"></path>
<path d="M7.353 20.208h4.722c0.194 0 0.354-0.062 0.48-0.187s0.187-0.286 0.187-0.478v-1.335c0-0.194-0.062-0.354-0.187-0.48s-0.286-0.187-0.48-0.187h-4.722c-0.194 0-0.354 0.062-0.478 0.187-0.126 0.126-0.19 0.286-0.19 0.48v1.335c0 0.194 0.064 0.354 0.19 0.478 0.126 0.126 0.283 0.187 0.478 0.187z"></path>
</svg>

<svg xmlns="http://www.w3.org/2000/svg" width="32" height="32"><path d="M7.353 9.563H22.02c.194 0 .354-.064.48-.19s.187-.286.187-.478V7.56c0-.194-.062-.354-.187-.48s-.286-.187-.48-.187H7.353a.645.645 0 0 0-.668.667v1.335c0 .194.064.354.19.478.126.126.283.19.478.19z"/><path d="M28.75.583A1.925 1.925 0 0 0 27.333 0H4.666C4.111 0 3.64.194 3.249.583A1.925 1.925 0 0 0 2.666 2v28c0 .555.194 1.029.583 1.417.391.389.862.583 1.417.583h13.335c.555 0 1.166-.139 1.833-.416.667-.279 1.195-.61 1.582-1.001l6.501-6.498c.386-.389.722-.917.999-1.584s.416-1.278.416-1.833h.002V2.001a1.92 1.92 0 0 0-.583-1.417zm-2.709 21.604l-6.521 6.521c-.167.167-.45.32-.853.457v-7.833H26.5c-.139.402-.293.688-.459.855zm.626-3.522H18a1.92 1.92 0 0 0-1.415.583A1.927 1.927 0 0 0 16 20.665v8.667H5.333V2.665h21.335v16z"/><path d="M7.353 14.896H22.02c.194 0 .354-.062.48-.187s.187-.283.187-.478v-1.335c0-.194-.062-.354-.187-.48s-.286-.187-.48-.187H7.353a.645.645 0 0 0-.668.667v1.335a.643.643 0 0 0 .668.665zm0 5.312h4.722c.194 0 .354-.062.48-.187s.187-.286.187-.478v-1.335c0-.194-.062-.354-.187-.48s-.286-.187-.48-.187H7.353a.645.645 0 0 0-.668.667v1.335a.643.643 0 0 0 .668.665z"/></svg>
